X: 2
T:Hunting the Hare. Jubilee dance.
M:6/8
L:1/8
S:Kerr's
K:G
ggG Bcd|eag fed|ggG Bcd|eaf g3|ggG Bcd|eag fed|ggG Bcd|eaf g3||
bga bga|bga bag| afg afg|a(8v)cb a3|ggG Bcd| eag fed| ggG Bcd|eaf g3||
